icons/inpatient.svg

<svg width="48" height="48" viewBox="0 0 48 48" fill="none" xmlns="http://www.w3.org/2000/svg">
<path fill-rule="evenodd" clip-rule="evenodd" d="M16.0961 11.1052C14.624 9.63232 12.2364 9.6315 10.7632 11.1034L10.0591 11.8069C8.71987 11.4263 7.22155 11.7669 6.16703 12.8285C4.61099 14.3951 4.61099 16.9376 6.16703 18.5042L7 19.3428V30H4V32H6.05051C5.40223 32.6353 5 33.5207 5 34.5C5 36.433 6.567 38 8.5 38C10.433 38 12 36.433 12 34.5C12 33.5207 11.5978 32.6353 10.9495 32H37.0505C36.4022 32.6353 36 33.5207 36 34.5C36 36.433 37.567 38 39.5 38C41.433 38 43 36.433 43 34.5C43 33.5207 42.5978 32.6353 41.9495 32H44V30H40V26.8873C41.7218 26.4646 43 24.8993 43 23.033C43 20.8423 41.2388 19.0664 39.0662 19.0664H18.11C18.0285 19.0664 17.9502 19.0337 17.8925 18.9756L17.5261 18.6068L17.8945 18.2387C19.3678 16.7667 19.3686 14.3793 17.8963 12.9063L16.0961 11.1052ZM16.1167 17.1878L16.4809 16.8239C17.1727 16.1327 17.1731 15.0118 16.4818 14.3202L14.6816 12.5191C13.9902 11.8273 12.8687 11.8269 12.1768 12.5182L11.8263 12.8684L16.1167 17.1878ZM41 23.033C41 21.9311 40.1185 21.0664 39.0662 21.0664H18.11C17.4932 21.0664 16.905 20.8194 16.4736 20.3851L10.3677 14.238C9.59731 13.4623 8.35643 13.4623 7.586 14.238C6.80467 15.0246 6.80467 16.3081 7.586 17.0948L15.4379 24.9997H39.0662C40.1186 24.9997 41 24.1349 41 23.033ZM14.2752 26.6672C14.4867 26.8801 14.7733 26.9997 15.0722 26.9997H38V30H9V21.3563L14.2752 26.6672ZM10 34.5C10 35.3284 9.32843 36 8.5 36C7.67157 36 7 35.3284 7 34.5C7 33.6716 7.67157 33 8.5 33C9.32843 33 10 33.6716 10 34.5ZM39.5 36C40.3284 36 41 35.3284 41 34.5C41 33.6716 40.3284 33 39.5 33C38.6716 33 38 33.6716 38 34.5C38 35.3284 38.6716 36 39.5 36Z" fill="black"/>
</svg>

<svg
  xmlns="http://www.w3.org/2000/svg"
  width="24"
  height="24"
  viewBox="0 0 24 24"
  fill="none"
  stroke="currentColor"
  stroke-width="2"
  stroke-linecap="round"
  stroke-linejoin="round"
>
  <path
    fill-rule="evenodd"
    d="M16.096 11.105a3.77 3.77 0 0 0-5.333-.002l-.704.704a3.95 3.95 0 0 0-3.892 1.021 4.034 4.034 0 0 0 0 5.676l.833.839V30H4v2h2.05a3.5 3.5 0 1 0 4.899 0h26.102a3.5 3.5 0 1 0 4.899 0H44v-2h-4v-3.113a3.96 3.96 0 0 0 3-3.854c0-2.19-1.761-3.967-3.934-3.967H18.11a.3.3 0 0 1-.218-.09l-.366-.37.369-.367a3.77 3.77 0 0 0 .001-5.333zm.02 6.083.365-.364a1.77 1.77 0 0 0 0-2.504l-1.8-1.8a1.77 1.77 0 0 0-2.504-.002l-.35.35zM41 23.033c0-1.102-.882-1.967-1.934-1.967H18.11a2.3 2.3 0 0 1-1.636-.68l-6.106-6.148a1.953 1.953 0 0 0-2.782 0 2.034 2.034 0 0 0 0 2.857L15.438 25h23.628C40.12 25 41 24.135 41 23.033m-26.725 3.634c.212.213.498.333.797.333H38v3H9v-8.644zM10 34.5a1.5 1.5 0 1 1-3 0 1.5 1.5 0 0 1 3 0M39.5 36a1.5 1.5 0 1 0 0-3 1.5 1.5 0 0 0 0 3"
    clip-rule="evenodd"
  />
</svg>
